X: 1
T: The Connemara Stockings
R: reel
M: 4/4
L: 1/8
K: Gmaj
g2fg edBA|GABG AGED|GABd eaag|1 fdef gbaf:|2 fdef gdef||
gbef gbe2|fade fad2|gbef gfed|Bded Bded|
ebba b2ag|faab ~a3f|gbag fagf|edef gdef||


Tune 614	Setting 21187

